site/src/assets/logos/videojs-mono.svg

<svg viewBox="0 0 381 68" fill="none" xmlns="http://www.w3.org/2000/svg">
  <title>Video.js</title>
  <g clip-path="url(#clip0_549_3634)">
    <path d="M88.7051 0V14.9579H71.204V0H88.7051ZM88.7051 18.912V66.2311H71.204V18.912H88.7051Z" fill="currentColor" />
    <path d="M48.6432 0V52.1057L20.9179 0H0L35.2631 66.2572H48.6432H56.181H66.1444V0H48.6432Z" fill="currentColor" />
    <path d="M150.337 0V66.2572H117.656C104.328 66.2572 93.7389 52.782 93.7389 40.5035C93.7389 26.5341 103.494 14.984 117.317 14.984H128.819V29.9419H123.16C117.082 29.9419 112.075 34.7544 112.075 40.6596C112.075 46.5647 117.004 51.2992 123.081 51.2992H132.836V0H150.337Z" fill="currentColor" />
    <path d="M212.36 66.2572H182.783C167.786 66.2572 154.692 56.5281 154.692 40.3995C154.692 27.2625 167.107 14.958 182.861 14.958H212.36V29.9159L200.701 46.955H180.879L193.216 29.9159H184.217C177.54 29.9159 173.054 34.2342 173.054 40.2174C173.054 46.6168 178.062 51.2733 184.217 51.2733H212.386V66.2312L212.36 66.2572Z" fill="currentColor" />
    <path d="M245.069 67.9993C229.237 67.9993 214.997 57.0995 214.997 40.6588C214.997 24.2181 229.655 13.2402 245.174 13.2402C260.693 13.2402 275.168 24.2961 275.168 40.6588C275.168 57.0215 260.823 67.9993 245.095 67.9993H245.069ZM233.306 40.6328C233.306 47.9426 238.392 53.0153 245.148 53.0153C251.903 53.0153 256.806 47.9426 256.806 40.6328C256.806 33.3229 251.981 28.1722 245.226 28.1722C238.471 28.1722 233.306 33.479 233.306 40.6328Z" fill="currentColor" />
    <path d="M357.876 25.1293H347.208C344.287 25.1293 341.94 23.7246 341.94 20.837C341.94 17.9495 344.209 16.8049 347.052 16.7529H348.304H376.186V0H346.4C335.184 0 323.578 7.96022 323.578 20.707C323.578 33.4537 335.184 40.9457 346.4 40.9457H357.067C360.041 40.9457 362.44 42.2984 362.44 45.264C362.44 48.2295 360.015 49.5302 357.067 49.5302H323.943V66.2571H357.902C369.169 66.2571 380.828 59.0773 380.828 45.264C380.828 32.4132 369.169 25.1033 357.902 25.1033L357.876 25.1293ZM339.853 25.1293H327.516C327.151 23.7506 326.916 22.2938 326.916 20.707C326.916 19.3022 327.099 18.0015 327.412 16.7529H339.749C338.966 17.8975 338.523 19.2762 338.523 20.837C338.523 22.4759 339.018 23.9327 339.853 25.1293ZM346.374 3.38179H372.769V13.3451H347.208C347.208 13.3451 347.13 13.3451 347.078 13.3451H328.742C332.054 7.04973 339.41 3.35578 346.374 3.35578V3.38179ZM328.899 28.5111H348.304H357.876C364.788 28.5111 371.986 31.6588 375.403 37.5639H356.259H346.374C339.331 37.5639 332.237 34.4683 328.899 28.4851V28.5111ZM377.411 45.29C377.411 46.7988 377.229 48.2295 376.916 49.5562H364.501C365.335 48.3856 365.805 46.9288 365.805 45.29C365.805 43.6511 365.335 42.1683 364.501 40.9717H376.812C377.177 42.3244 377.411 43.7552 377.411 45.29ZM357.876 62.9013H327.308V52.938H356.259H375.716C372.482 59.4935 365.153 62.9013 357.876 62.9013Z" fill="currentColor" />
    <path d="M300.547 36.5754C300.547 40.0612 298.695 49.5042 288.393 49.5302H277.099V66.2831L290.584 66.4132H293.922C309.337 66.3872 318.518 56.4759 318.518 38.8906V0H300.547V36.5754ZM303.468 40.9457H315.075C314.918 44.1454 314.449 47.0069 313.64 49.5562H298.095C300.573 47.6572 302.608 44.8477 303.494 40.9457H303.468ZM303.938 28.5111H315.127V37.5639H303.886C303.886 37.2257 303.938 36.9135 303.938 36.5494V28.4851V28.5111ZM303.938 25.1293V16.7529H315.127V25.1293H303.938ZM293.896 63.0054H290.636L280.516 62.9273V52.912H288.419H312.232C308.867 59.4675 302.634 62.9793 293.896 62.9793V63.0054ZM315.127 3.38179V13.3711H303.938V3.38179H315.127Z" fill="currentColor" />
  </g>
  <defs>
    <clipPath id="clip0_549_3634">
      <rect width="380.8" height="68" fill="white" />
    </clipPath>
  </defs>
</svg>

<svg xmlns="http://www.w3.org/2000/svg" fill="none" viewBox="0 0 381 68"><path fill="currentColor" d="M88.705 0v14.958H71.204V0zm0 18.912v47.32H71.204v-47.32zM48.643 0v52.106L20.918 0H0l35.263 66.257h30.881V0zm101.694 0v66.257h-32.681c-13.328 0-23.917-13.475-23.917-25.754 0-13.969 9.755-25.519 23.578-25.519h11.502v14.958h-5.659c-6.078 0-11.085 4.812-11.085 10.718s4.929 10.64 11.006 10.64h9.755V0zm62.023 66.257h-29.577c-14.997 0-28.091-9.729-28.091-25.857 0-13.137 12.415-25.442 28.169-25.442h29.499v14.958l-11.659 17.039h-19.822l12.337-17.04h-8.999c-6.677 0-11.163 4.32-11.163 10.302 0 6.4 5.008 11.056 11.163 11.056h28.169v14.958zM245.069 68c-15.832 0-30.072-10.9-30.072-27.341 0-16.44 14.658-27.419 30.177-27.419s29.994 11.056 29.994 27.419-14.345 27.34-30.073 27.34zm-11.763-27.367c0 7.31 5.086 12.382 11.842 12.382 6.755 0 11.658-5.072 11.658-12.382s-4.825-12.46-11.58-12.46-11.92 5.306-11.92 12.46m124.57-15.503h-10.668c-2.921 0-5.268-1.405-5.268-4.293s2.269-4.032 5.112-4.084h29.134V0H346.4c-11.216 0-22.822 7.96-22.822 20.707s11.606 20.239 22.822 20.239h10.667c2.974 0 5.373 1.352 5.373 4.318s-2.425 4.266-5.373 4.266h-33.124v16.727h33.959c11.267 0 22.926-7.18 22.926-20.993 0-12.85-11.659-20.16-22.926-20.16zm-18.023 0h-12.337c-.365-1.38-.6-2.836-.6-4.423 0-1.405.183-2.706.496-3.954h12.337c-.783 1.145-1.226 2.523-1.226 4.084 0 1.639.495 3.096 1.33 4.292m6.521-21.748h26.395v9.963h-44.027c3.312-6.295 10.668-9.99 17.632-9.99zm-17.475 25.13h28.977c6.912 0 14.11 3.147 17.527 9.052h-29.029c-7.043 0-14.137-3.096-17.475-9.079zm48.512 16.778c0 1.509-.182 2.94-.495 4.266h-12.415c.834-1.17 1.304-2.627 1.304-4.266s-.47-3.122-1.304-4.318h12.311c.365 1.352.599 2.783.599 4.318M357.876 62.9h-30.568v-9.963h48.408c-3.234 6.555-10.563 9.963-17.84 9.963m-57.329-26.325c0 3.486-1.852 12.93-12.154 12.955h-11.294v16.753l13.485.13h3.338c15.415-.026 24.596-9.937 24.596-27.522V0h-17.971zm2.921 4.37h11.607c-.157 3.2-.626 6.062-1.435 8.611h-15.545c2.478-1.899 4.513-4.708 5.399-8.61zm.47-12.434h11.189v9.053h-11.241c0-.338.052-.65.052-1.015v-8.064zm0-3.382v-8.376h11.189v8.376zm-10.042 37.876h-3.26l-10.12-.078V52.912h31.716c-3.365 6.556-9.598 10.067-18.336 10.067zm21.231-59.623v9.99h-11.189v-9.99z"/></svg>
